icons/footer-links-3.svg

<svg width="30" height="30" viewBox="0 0 30 30" fill="none" xmlns="http://www.w3.org/2000/svg">
<path opacity="0.5" d="M27.3125 7.5V21.5625C27.3125 22.0598 27.115 22.5367 26.7633 22.8883C26.4117 23.24 25.9348 23.4375 25.4375 23.4375H4.8125C5.30978 23.4375 5.78669 23.24 6.13833 22.8883C6.48996 22.5367 6.6875 22.0598 6.6875 21.5625V7.5C6.6875 7.25136 6.78627 7.0129 6.96209 6.83709C7.1379 6.66127 7.37636 6.5625 7.625 6.5625H26.375C26.6236 6.5625 26.8621 6.66127 27.0379 6.83709C27.2137 7.0129 27.3125 7.25136 27.3125 7.5Z" fill="white"/>
<path d="M11.375 13.125C11.375 12.8764 11.4738 12.6379 11.6496 12.4621C11.8254 12.2863 12.0639 12.1875 12.3125 12.1875H21.6875C21.9361 12.1875 22.1746 12.2863 22.3504 12.4621C22.5262 12.6379 22.625 12.8764 22.625 13.125C22.625 13.3736 22.5262 13.6121 22.3504 13.7879C22.1746 13.9637 21.9361 14.0625 21.6875 14.0625H12.3125C12.0639 14.0625 11.8254 13.9637 11.6496 13.7879C11.4738 13.6121 11.375 13.3736 11.375 13.125ZM12.3125 17.8125H21.6875C21.9361 17.8125 22.1746 17.7137 22.3504 17.5379C22.5262 17.3621 22.625 17.1236 22.625 16.875C22.625 16.6264 22.5262 16.3879 22.3504 16.2121C22.1746 16.0363 21.9361 15.9375 21.6875 15.9375H12.3125C12.0639 15.9375 11.8254 16.0363 11.6496 16.2121C11.4738 16.3879 11.375 16.6264 11.375 16.875C11.375 17.1236 11.4738 17.3621 11.6496 17.5379C11.8254 17.7137 12.0639 17.8125 12.3125 17.8125ZM28.25 7.5V21.5625C28.25 22.3084 27.9537 23.0238 27.4262 23.5512C26.8988 24.0787 26.1834 24.375 25.4375 24.375H4.8125C4.06881 24.375 3.35538 24.0805 2.82831 23.5558C2.30123 23.0311 2.00341 22.3191 2 21.5754V10.3125C2 10.0639 2.09877 9.8254 2.27459 9.64959C2.4504 9.47377 2.68886 9.375 2.9375 9.375C3.18614 9.375 3.4246 9.47377 3.60041 9.64959C3.77623 9.8254 3.875 10.0639 3.875 10.3125V21.5625C3.875 21.8111 3.97377 22.0496 4.14959 22.2254C4.3254 22.4012 4.56386 22.5 4.8125 22.5C5.06114 22.5 5.2996 22.4012 5.47541 22.2254C5.65123 22.0496 5.75 21.8111 5.75 21.5625V7.5C5.75 7.00272 5.94754 6.52581 6.29917 6.17417C6.65081 5.82254 7.12772 5.625 7.625 5.625H26.375C26.8723 5.625 27.3492 5.82254 27.7008 6.17417C28.0525 6.52581 28.25 7.00272 28.25 7.5ZM26.375 7.5H7.625V21.5625C7.62556 21.8819 7.57125 22.199 7.46445 22.5H25.4375C25.6861 22.5 25.9246 22.4012 26.1004 22.2254C26.2762 22.0496 26.375 21.8111 26.375 21.5625V7.5Z" fill="white"/>
</svg>

<svg xmlns="http://www.w3.org/2000/svg" width="30" height="30" fill="none"><path fill="#fff" d="M27.313 7.5v14.063a1.875 1.875 0 0 1-1.875 1.875H4.813a1.875 1.875 0 0 0 1.875-1.875V7.5a.937.937 0 0 1 .937-.937h18.75a.937.937 0 0 1 .938.937" opacity=".5"/><path fill="#fff" d="M11.375 13.125a.94.94 0 0 1 .938-.937h9.375a.938.938 0 0 1 0 1.874h-9.375a.94.94 0 0 1-.938-.937m.938 4.688h9.375a.938.938 0 0 0 0-1.875h-9.375a.938.938 0 0 0 0 1.874M28.25 7.5v14.063a2.81 2.81 0 0 1-2.812 2.812H4.813A2.81 2.81 0 0 1 2 21.575V10.313a.938.938 0 0 1 1.875 0v11.25a.937.937 0 0 0 1.875 0V7.5a1.875 1.875 0 0 1 1.875-1.875h18.75A1.875 1.875 0 0 1 28.25 7.5m-1.875 0H7.625v14.063c0 .319-.054.636-.16.937h17.973a.94.94 0 0 0 .937-.937z"/></svg>
